X:698
T:
N:Visa, vars melodi begagnats till att marschera efter,
S:uppt. efter Niklas Pettersson, Salands Linde.
R:marsch
O:Gotland, Linde
M:2/4
L:1/8
K:G
D|DG GG|G2 FG|A>B AF|D3 D|EC CC|CE GE|DCB,C|D3:|
|:G|BGBG|d>d dB|G>B AG|E3 E|ccBB|AAGG|FFEE|D z LF2|LG3:|

